X:82
T:St Vincent's Hornpipe
S:John Moore's Book 2
Z:Transcribed by Edmund Spriggs 05/2021
%%VWML: Moore1-4494-p64-0
F:http://www.vwml.org/record/Moore2/4494/p64
M:C
R:Hornpipe
N:
L:1/8
K:Bb
fe|dcBA BcdB|((3cdc) ((3BAG)F2FE|DFBF GecA|B2B>BB2z2|
dBdf eceg|fdfa gega|bagf =ef ((3gab)|a2f2f2:|
|:fe|d>B ((3BAB) d>B ((3BAB)|G>E ((3EDE) G>E ((3EDE)|cBcd edcB|A>F ((3F=EF) A>F ((3FEF)|
f>B ((3BAB) g>B ((3BAB)|gfga b>B ((3BAB)|Ggfe dcBA|c2B2B2:|

